www/assets/icons/dehaze.svg

<svg xmlns="http://www.w3.org/2000/svg" width="24" height="24" viewBox="0 0 24 24" fill='currentColor'><path d="M2 16v2h20v-2zm0-5v2h20v-2zm0-5v2h20V6z"/></svg>

<svg width="24" height="24" viewBox="0 0 24 24" xmlns="http://www.w3.org/2000/svg" fill='currentColor'><path d="M2 16V18H22V16H2ZM2 11V13H22V11H2ZM2 6V8H22V6H2Z"/></svg>
